X:72
T:Mrs. Muir of Caldwall's
N:Strathspey
C:Niel Gow
K:D
M:C
L:1/8
V:1
d | AFA>B A>B ({A/B/}d)F | AFA>B A2 > B2 | AFAB A>B {A/B/}dF | E<ETF>A (TB2 B) :| g | f>de>c Td>A FD | f<de>c Td2>g2 | f>de>c Td>A FD | E<EF>A (B2 B)g | fdec Td>A FD | f<de<c d2>g2 | f<a e<f Td>A FD | E<ETF>A TB2 B |]
V:2 clef=bass middle=d
L:1/4
z/ | dddd | dddd | dddd | cdBB/ :| z/ | dafd | dAdd | dafd | cdBB | dAdd | dabc' | d'afd | cdBB/ |]